Pods/ProtonCore-UIFoundations/libraries/UIFoundations/Sources/Assets.xcassets/Images/IconSet/ic-star.imageset/ic-star.svg

<svg width="24" height="24" viewBox="0 0 24 24" fill="none" xmlns="http://www.w3.org/2000/svg">
<path fill-rule="evenodd" clip-rule="evenodd" d="M12 4.41482L9.78756 8.35922C9.44119 8.97673 8.83772 9.39465 8.15709 9.51858L3.69783 10.3305L6.7879 13.5084C7.27936 14.0138 7.51969 14.7185 7.42501 15.4279L6.83955 19.8148L11.0062 17.8918C11.6362 17.601 12.3638 17.601 12.9938 17.8918L17.1604 19.8148L16.575 15.4279C16.4803 14.7185 16.7206 14.0138 17.2121 13.5084L20.3022 10.3305L15.8429 9.51858C15.1623 9.39465 14.5588 8.97673 14.2124 8.35922L12 4.41482ZM12.7477 2.68158C12.4249 2.10614 11.5751 2.10614 11.2523 2.68158L8.4793 7.62541C8.35681 7.84379 8.13985 7.99706 7.88839 8.04284L2.19565 9.07937C1.53305 9.20001 1.27045 9.98583 1.73357 10.4621L5.71248 14.5541C5.88824 14.7348 5.97111 14.9828 5.93819 15.2295L5.19292 20.814C5.10617 21.464 5.79367 21.9496 6.40266 21.6685L11.6348 19.2537C11.8659 19.147 12.1341 19.147 12.3652 19.2537L17.5973 21.6685C18.2063 21.9496 18.8938 21.464 18.8071 20.814L18.0618 15.2295C18.0289 14.9828 18.1118 14.7348 18.2875 14.5541L22.2664 10.4621C22.7295 9.98583 22.4669 9.20001 21.8043 9.07937L16.1116 8.04284C15.8601 7.99706 15.6432 7.84379 15.5207 7.62541L12.7477 2.68158Z" fill="#0C0C14"/>
</svg>

<svg xmlns="http://www.w3.org/2000/svg" width="24" height="24" viewBox="0 0 24 24">
  <g class="ic-star">
    <path fill-rule="evenodd" d="M12 4.415 9.788 8.359a2.35 2.35 0 0 1-1.63 1.16l-4.46.812 3.09 3.177c.491.506.732 1.21.637 1.92l-.585 4.387 4.166-1.923a2.373 2.373 0 0 1 1.988 0l4.166 1.923-.585-4.387a2.313 2.313 0 0 1 .637-1.92l3.09-3.177-4.46-.812a2.35 2.35 0 0 1-1.63-1.16L12 4.415Zm.748-1.733c-.323-.576-1.173-.576-1.496 0L8.48 7.625a.85.85 0 0 1-.59.418L2.195 9.079c-.663.121-.926.907-.462 1.383l3.978 4.092c.176.18.26.429.226.675l-.745 5.585c-.087.65.6 1.136 1.21.855l5.232-2.415a.873.873 0 0 1 .73 0l5.232 2.415c.61.28 1.297-.205 1.21-.855l-.745-5.585a.814.814 0 0 1 .226-.675l3.978-4.092c.464-.476.2-1.262-.462-1.383l-5.692-1.036a.85.85 0 0 1-.591-.418l-2.773-4.943Z" class="Icon"/>
  </g>
</svg>
